X: 14
T: Tulla Reel
T: Humours of Tulla
M: 4/4
L: 1/8
R: reel
K:D
"D"d2 Ad "G"BdAB|"D"d2 fd "A"edBc|"D"d2 Ad "G"BdAd|"Bm"(3Bcd ef "G"g2 fe|
"D"d2 Ad "G"BdAB|"D"d2 fd "A"edBc|"D"d2 Ad "G"BdAd|"Bm"(3Bcd ef "G"g2 fg ||
"D"af ~f2 df ~f2|af ~f2 "A"ge e2|"D"af ~f2 dfed|"Bm"(3Bcd ef "G"g2 fg|
"D"af ~f2 "Bm"bf ~f2|"D"af ~f2 "A"ge e2|"D"af ~f2 dfed|"Bm"(3Bcd ef "G"g2 fe|]


